addons/dreadpon.spatial_gardener/icons/gardener_icon.svg

<svg viewBox="0 0 16 16" xmlns="http://www.w3.org/2000/svg"><path d="m8 9.65s0 2.22 3.66 2.22c2.34 0 2.58 1.55 2.27 2.13-2.93-.67-4 1.06-5.93 1.06s-3-1.73-5.93-1.06c-.31-.58-.07-2.13 2.27-2.13 3.66-0 3.66-2.22 3.66-2.22z" fill="#fc9c9c"/><g fill="none" stroke="#fc9c9c" stroke-width="1.5"><path d="m7.93 11.24a4.31 4.31 0 0 0 -.53-3.92" stroke-linecap="round" stroke-linejoin="round"/><path d="m10.84 5.34a2.55 2.55 0 0 0 -.84 1.47 2.54 2.54 0 0 0 1.68.25c.98-.19 2.11-2.06 2.11-2.06s-2.23-.31-2.95.34z" stroke-miterlimit="10"/><path d="m6.85 4.92c-.68-1.14-1.85-1.06-3.34-1.63a4.58 4.58 0 0 1 -1.44-.92 7 7 0 0 0 -.3 1.39 3.35 3.35 0 0 0 1.82 3.77c1.51.65 3.17.23 3.41-.13a2.38 2.38 0 0 0 -.15-2.48z" stroke-miterlimit="10"/></g></svg>

<svg id="gardener_icon" xmlns="http://www.w3.org/2000/svg" viewBox="0 0 16 16"><path id="ground" d="M8,9.65s0,2.22,3.66,2.22c2.34,0,2.58,1.55,2.27,2.13-2.93-.67-4,1.06-5.93,1.06S5,13.33,2.07,14c-.31-.58-.07-2.13,2.27-2.13C8,11.87,8,9.65,8,9.65Z" style="fill:#fc9c9c"/><path id="stem" d="M7.93,11.24A4.31,4.31,0,0,0,7.4,7.32" style="fill:none;stroke:#fc9c9c;stroke-linecap:round;stroke-linejoin:round;stroke-width:1.5px"/><path id="leaf_2" d="M10.84,5.34A2.55,2.55,0,0,0,10,6.81a2.54,2.54,0,0,0,1.68.25C12.66,6.87,13.79,5,13.79,5S11.56,4.69,10.84,5.34Z" style="fill:none;stroke:#fc9c9c;stroke-miterlimit:10;stroke-width:1.5px"/><path id="leaf_1" d="M6.85,4.92C6.17,3.78,5,3.86,3.51,3.29a4.58,4.58,0,0,1-1.44-.92,7,7,0,0,0-.3,1.39A3.35,3.35,0,0,0,3.59,7.53C5.1,8.18,6.76,7.76,7,7.4A2.38,2.38,0,0,0,6.85,4.92Z" style="fill:none;stroke:#fc9c9c;stroke-miterlimit:10;stroke-width:1.5px"/></svg>
